X: 1
T: Ballantine House
T: 8x32J 3C (Milton Levy, 1990)
T: Set, fig8; HelloGdbye; diagReel4; 6HRB
P: Half-Pint Jig
C: James Stevenson 1996
C: arr. T. Traub 10-16-2014
M: 6/8
R: jig
K: G
|: D|"G"BAG D2 G|"C"AEG "D"F2 D|"G"BAG DCB,|"Am"CAA "D"A2 c|"G"BAG D2 G|
"Am"AEG "D"F2 D|"C"ECG "D"FDB|"G"G3 G2 :||: B|"G"dBG "C"c2 e|"G"dBG "D"ABA|"Em"G2 E GAB|
"Am"cdB "D"A2 B|"G"dBG "C"cde|"Bm"dcd "D"cBA|"C"GED DEG|"D"AGF "G"G2 :|